X:1094
T:Marsch efter Kvarnmyr Lars
R:Marsch
Z:Klas Krantz, 2006
O:Dalarna
S:efter Kvarnmyr Lars
L:1/8
M:2/4
K:D
A/d/ | "D"fd dA/d/ | fd d/f/a/f/ | "A7"ge c/A/c/e/ | a/^g/a/b/ a/=g/f/e/ |
"D"fd dA/d/ | fd d/f/a/f/ | "A7"ge c/A/c/e/ | "D"d3 :|]
d/f/ | "D"aa g/f/g/b/ | a2 ff/a/ | "A7"ge cA | "D"d/c/d/e/ fd/f/ |
aa g/f/g/b/ | a2 ff/a/ | "A7"ge c/A/c/e/ | "D"d3 :|]
(:musicend:)

[[!Ackord]]

(:music:)
